img/svg/products-decoration-desk-3.svg

<svg width="670" height="313" viewBox="0 0 670 313" fill="none" xmlns="http://www.w3.org/2000/svg"><g clip-path="url(#clip0)" fill="#B69D6D" opacity=".1"><path d="M307.539 510.584l-1.484-4.18 63.378-21.306 69.716 23.329L509 485.233l69.851 23.194 69.716-23.329 63.378 21.306-1.484 4.18-62.029-20.766-69.716 23.328L509 489.818l-69.716 23.328-69.716-23.328-62.029 20.766z"/><path d="M273.962 478.355l1.348-4.315 24.407 8.226 69.716-23.329 69.716 23.329L509 459.072l69.851 23.194 69.716-23.329 69.716 23.329 24.407-8.226 1.348 4.315-25.756 8.496-69.715-23.059-69.851 23.194L509 463.657l-69.716 23.329-69.851-23.194-69.715 23.059-25.756-8.496z"/><path d="M234.721 439.115l1.349-4.315 63.648 21.306 69.715-23.328 69.716 23.328L509 432.912l69.851 23.194 69.716-23.328 69.715 23.328L781.93 434.8l1.349 4.315-64.997 21.576-69.715-23.059-69.851 23.194L509 437.497l-69.716 23.329-69.851-23.194-69.715 23.059-64.997-21.576z"/><path d="M213.82 416.866l-1.483-4.181 17.665-6.068 69.716 23.329 69.715-23.329 69.716 23.329L509 406.752l69.851 23.194 69.716-23.329 69.715 23.329 69.716-23.329 17.665 6.068-1.483 4.181-16.182-5.394-69.716 23.059-69.715-23.059-69.851 23.193L509 411.337l-69.716 23.328-69.851-23.193-69.715 23.059-69.716-23.059-16.182 5.394z"/><path d="M194.132 397.178l-1.483-4.18 37.353-12.541 69.716 23.328 69.715-23.328 69.716 23.328L509 380.592l69.851 23.193 69.716-23.328 69.715 23.328 69.716-23.328 37.353 12.541-1.483 4.18-35.87-11.867-69.716 23.059-69.715-23.059-69.851 23.194L509 385.177l-69.716 23.328-69.851-23.194-69.715 23.059-69.716-23.059-35.87 11.867z"/><path d="M174.58 377.625l-1.484-4.18 56.906-19.148 69.716 23.328 69.715-23.328 69.716 23.328L509 354.431l69.851 23.194 69.716-23.328 69.715 23.328 69.716-23.328 56.906 19.148-1.484 4.18-55.422-18.474-69.85 23.194-69.581-23.194-69.851 23.194L509 359.016l-69.716 23.329-69.851-23.194-69.581 23.194-69.85-23.194-55.422 18.474z"/><path d="M147.475 351.869l1.484-4.18 11.327 3.776 69.716-23.329 69.716 23.329 69.715-23.329 69.716 23.329L509 328.271l69.851 23.194 69.716-23.329 69.715 23.329 69.716-23.329 69.716 23.329 11.327-3.776 1.484 4.18-12.676 4.316-69.851-23.194-69.85 23.193-69.581-23.193-69.851 23.194L509 332.856l-69.716 23.329-69.851-23.194-69.581 23.193-69.85-23.193-69.851 23.194-12.676-4.316z"/><path d="M116.46 315.461l1.349-4.316 42.477 14.159 69.716-23.328 69.716 23.328 69.715-23.328 69.716 23.328L509 302.111l69.851 23.193 69.716-23.328 69.715 23.328 69.716-23.328 69.716 23.328 42.477-14.159 1.349 4.316-43.691 14.563-69.851-23.194-69.85 23.194-69.581-23.194-69.851 23.194L509 306.695l-69.716 23.329-69.851-23.194-69.581 23.194-69.85-23.194-69.851 23.194-43.691-14.563z"/><path d="M136.148 295.773l1.214-4.18 22.924 7.551 69.716-23.328 69.715 23.328 69.716-23.328 69.716 23.328L509 275.95l69.851 23.194 69.716-23.328 69.716 23.328 69.715-23.328 69.716 23.328 22.924-7.551 1.214 4.18-24.003 8.091-69.851-23.194-69.85 23.194-69.581-23.194-69.851 23.194L509 280.535l-69.716 23.329-69.851-23.194-69.581 23.194-69.85-23.194-69.851 23.194-24.003-8.091z"/><path d="M155.701 276.22l1.348-4.315 3.237 1.079 69.716-23.329 69.716 23.329 69.715-23.329 69.716 23.329L509 249.79l69.851 23.194 69.716-23.329 69.715 23.329 69.716-23.329 69.716 23.329 3.237-1.079 1.348 4.315-4.45 1.483-69.851-23.193-69.85 23.193-69.581-23.193-69.851 23.193L509 254.375l-69.716 23.328-69.851-23.193-69.581 23.193-69.85-23.193-69.851 23.193-4.45-1.483z"/><path d="M192.514 240.755l-1.483-4.18 38.971-13.08 69.716 23.328 69.85-23.193 69.581 23.193L509 223.63l69.851 23.193 69.581-23.193 69.85 23.193 69.716-23.328 38.971 13.08-1.483 4.18-37.488-12.406-69.85 23.194-69.581-23.194-69.851 23.194L509 228.215l-69.716 23.328-69.851-23.194-69.581 23.194-69.85-23.194-37.488 12.406z"/><path d="M229.867 202.054l1.348-4.315 68.503 22.924 69.85-23.194 69.581 23.194L509 197.469l69.851 23.194 69.581-23.194 69.85 23.194 68.503-22.924 1.348 4.315-69.985 23.329-69.581-23.194-69.851 23.194L509 202.054l-69.716 23.329-69.851-23.194-69.581 23.194-69.985-23.329z"/><path d="M249.42 182.501l1.348-4.315 48.95 16.317 69.85-23.194 69.581 23.194L509 171.309l69.851 23.194 69.581-23.194 69.85 23.194 48.95-16.317 1.348 4.315-50.432 16.721-69.581-23.193-69.851 23.193L509 175.894l-69.716 23.328-69.851-23.193-69.581 23.193-50.432-16.721z"/><path d="M269.107 162.814l1.349-4.315 29.262 9.844 69.85-23.194 69.581 23.194L509 145.149l69.851 23.194 69.581-23.194 69.85 23.194 29.262-9.844 1.349 4.315-30.745 10.248-69.581-23.194-69.851 23.194L509 149.734l-69.716 23.328-69.851-23.194-69.581 23.194-30.745-10.248z"/><path d="M288.66 143.261l1.349-4.315 9.709 3.236 69.85-23.193 69.581 23.193L509 118.989l69.851 23.193 69.581-23.193 69.85 23.193 9.709-3.236 1.349 4.315-11.192 3.641-69.581-23.194-69.851 23.194L509 123.573l-69.716 23.329-69.851-23.194-69.581 23.194-11.192-3.641z"/><path d="M318.866 114.404l-1.349-4.315 52.051-17.26 69.581 23.193L509 92.828l69.851 23.194 69.581-23.194 52.051 17.261-1.349 4.315-50.567-16.856-69.851 23.194L509 97.413l-69.716 23.329-69.851-23.194-50.567 16.856z"/><path d="M358.106 75.163l-1.348-4.315 12.81-4.18 69.581 23.194L509 66.668l69.851 23.194 69.581-23.194 12.81 4.18-1.348 4.315-11.327-3.775-69.851 23.193L509 71.253 439.284 94.58l-69.851-23.193-11.327 3.775z"/><path d="M382.379 49.542l1.348-4.315 55.422 18.474L509 40.508 578.851 63.7l55.422-18.474 1.348 4.315-56.905 18.879L509 45.092l-69.716 23.329-56.905-18.879z"/><path d="M402.066 29.855l1.349-4.315 35.734 12.001L509 14.347l69.851 23.194 35.734-12.001 1.349 4.315-37.218 12.406L509 18.932l-69.716 23.329-37.218-12.406z"/><path d="M421.619 10.302l1.349-4.315 16.181 5.394L509-11.813l69.851 23.194 16.181-5.394 1.349 4.315-17.665 5.798L509-7.228 439.284 16.1l-17.665-5.798zm23.733-22.385l-1.483-4.18L509-37.973l65.131 21.71-1.483 4.18L509-33.388l-63.648 21.305z"/></g><defs><clipPath id="clip0"><path transform="rotate(45 509 -81.394)" fill="#fff" d="M509-81.394h562v562H509z"/></clipPath></defs></svg>

<svg width="670" height="313" viewBox="0 0 670 313" fill="none" xmlns="http://www.w3.org/2000/svg">
<g opacity="0.1">
<g clip-path="url(#clip0)">
<path d="M307.539 510.584L306.055 506.404L369.433 485.098L439.149 508.427L509 485.233L578.851 508.427L648.567 485.098L711.945 506.404L710.461 510.584L648.432 489.818L578.716 513.146L509 489.818L439.284 513.146L369.568 489.818L307.539 510.584Z" fill="#B69D6D"/>
<path d="M273.962 478.355L275.31 474.04L299.717 482.266L369.433 458.937L439.149 482.266L509 459.072L578.851 482.266L648.567 458.937L718.283 482.266L742.69 474.04L744.038 478.355L718.282 486.851L648.567 463.792L578.716 486.986L509 463.657L439.284 486.986L369.433 463.792L299.718 486.851L273.962 478.355Z" fill="#B69D6D"/>
<path d="M234.721 439.115L236.07 434.8L299.718 456.106L369.433 432.778L439.149 456.106L509 432.912L578.851 456.106L648.567 432.778L718.282 456.106L781.93 434.8L783.279 439.115L718.282 460.691L648.567 437.632L578.716 460.826L509 437.497L439.284 460.826L369.433 437.632L299.718 460.691L234.721 439.115Z" fill="#B69D6D"/>
<path d="M213.82 416.866L212.337 412.685L230.002 406.617L299.718 429.946L369.433 406.617L439.149 429.946L509 406.752L578.851 429.946L648.567 406.617L718.282 429.946L787.998 406.617L805.663 412.685L804.18 416.866L787.998 411.472L718.282 434.531L648.567 411.472L578.716 434.665L509 411.337L439.284 434.665L369.433 411.472L299.718 434.531L230.002 411.472L213.82 416.866Z" fill="#B69D6D"/>
<path d="M194.132 397.178L192.649 392.998L230.002 380.457L299.718 403.785L369.433 380.457L439.149 403.785L509 380.592L578.851 403.785L648.567 380.457L718.282 403.785L787.998 380.457L825.351 392.998L823.868 397.178L787.998 385.311L718.282 408.37L648.567 385.311L578.716 408.505L509 385.177L439.284 408.505L369.433 385.311L299.718 408.37L230.002 385.311L194.132 397.178Z" fill="#B69D6D"/>
<path d="M174.58 377.625L173.096 373.445L230.002 354.297L299.718 377.625L369.433 354.297L439.149 377.625L509 354.431L578.851 377.625L648.567 354.297L718.282 377.625L787.998 354.297L844.904 373.445L843.42 377.625L787.998 359.151L718.148 382.345L648.567 359.151L578.716 382.345L509 359.016L439.284 382.345L369.433 359.151L299.852 382.345L230.002 359.151L174.58 377.625Z" fill="#B69D6D"/>
<path d="M147.475 351.869L148.959 347.689L160.286 351.465L230.002 328.136L299.718 351.465L369.433 328.136L439.149 351.465L509 328.271L578.851 351.465L648.567 328.136L718.282 351.465L787.998 328.136L857.714 351.465L869.041 347.689L870.525 351.869L857.849 356.185L787.998 332.991L718.148 356.184L648.567 332.991L578.716 356.185L509 332.856L439.284 356.185L369.433 332.991L299.852 356.184L230.002 332.991L160.151 356.185L147.475 351.869Z" fill="#B69D6D"/>
<path d="M116.46 315.461L117.809 311.145L160.286 325.304L230.002 301.976L299.718 325.304L369.433 301.976L439.149 325.304L509 302.111L578.851 325.304L648.567 301.976L718.282 325.304L787.998 301.976L857.714 325.304L900.191 311.145L901.54 315.461L857.849 330.024L787.998 306.83L718.148 330.024L648.567 306.83L578.716 330.024L509 306.695L439.284 330.024L369.433 306.83L299.852 330.024L230.002 306.83L160.151 330.024L116.46 315.461Z" fill="#B69D6D"/>
<path d="M136.148 295.773L137.362 291.593L160.286 299.144L230.002 275.816L299.717 299.144L369.433 275.816L439.149 299.144L509 275.95L578.851 299.144L648.567 275.816L718.283 299.144L787.998 275.816L857.714 299.144L880.638 291.593L881.852 295.773L857.849 303.864L787.998 280.67L718.148 303.864L648.567 280.67L578.716 303.864L509 280.535L439.284 303.864L369.433 280.67L299.852 303.864L230.002 280.67L160.151 303.864L136.148 295.773Z" fill="#B69D6D"/>
<path d="M155.701 276.22L157.049 271.905L160.286 272.984L230.002 249.655L299.718 272.984L369.433 249.655L439.149 272.984L509 249.79L578.851 272.984L648.567 249.655L718.282 272.984L787.998 249.655L857.714 272.984L860.951 271.905L862.299 276.22L857.849 277.703L787.998 254.51L718.148 277.703L648.567 254.51L578.716 277.703L509 254.375L439.284 277.703L369.433 254.51L299.852 277.703L230.002 254.51L160.151 277.703L155.701 276.22Z" fill="#B69D6D"/>
<path d="M192.514 240.755L191.031 236.575L230.002 223.495L299.718 246.823L369.568 223.63L439.149 246.823L509 223.63L578.851 246.823L648.432 223.63L718.282 246.823L787.998 223.495L826.969 236.575L825.486 240.755L787.998 228.349L718.148 251.543L648.567 228.349L578.716 251.543L509 228.215L439.284 251.543L369.433 228.349L299.852 251.543L230.002 228.349L192.514 240.755Z" fill="#B69D6D"/>
<path d="M229.867 202.054L231.215 197.739L299.718 220.663L369.568 197.469L439.149 220.663L509 197.469L578.851 220.663L648.432 197.469L718.282 220.663L786.785 197.739L788.133 202.054L718.148 225.383L648.567 202.189L578.716 225.383L509 202.054L439.284 225.383L369.433 202.189L299.852 225.383L229.867 202.054Z" fill="#B69D6D"/>
<path d="M249.42 182.501L250.768 178.186L299.718 194.503L369.568 171.309L439.149 194.503L509 171.309L578.851 194.503L648.432 171.309L718.282 194.503L767.232 178.186L768.58 182.501L718.148 199.222L648.567 176.029L578.716 199.222L509 175.894L439.284 199.222L369.433 176.029L299.852 199.222L249.42 182.501Z" fill="#B69D6D"/>
<path d="M269.107 162.814L270.456 158.499L299.718 168.343L369.568 145.149L439.149 168.343L509 145.149L578.851 168.343L648.432 145.149L718.282 168.343L747.544 158.499L748.893 162.814L718.148 173.062L648.567 149.868L578.716 173.062L509 149.734L439.284 173.062L369.433 149.868L299.852 173.062L269.107 162.814Z" fill="#B69D6D"/>
<path d="M288.66 143.261L290.009 138.946L299.718 142.182L369.568 118.989L439.149 142.182L509 118.989L578.851 142.182L648.432 118.989L718.282 142.182L727.991 138.946L729.34 143.261L718.148 146.902L648.567 123.708L578.716 146.902L509 123.573L439.284 146.902L369.433 123.708L299.852 146.902L288.66 143.261Z" fill="#B69D6D"/>
<path d="M318.866 114.404L317.517 110.089L369.568 92.8282L439.149 116.022L509 92.8282L578.851 116.022L648.432 92.8282L700.483 110.089L699.134 114.404L648.567 97.5479L578.716 120.742L509 97.413L439.284 120.742L369.433 97.5479L318.866 114.404Z" fill="#B69D6D"/>
<path d="M358.106 75.1633L356.758 70.8482L369.568 66.6679L439.149 89.8616L509 66.6679L578.851 89.8616L648.432 66.6679L661.242 70.8482L659.894 75.1633L648.567 71.3876L578.716 94.5812L509 71.2527L439.284 94.5812L369.433 71.3876L358.106 75.1633Z" fill="#B69D6D"/>
<path d="M382.379 49.5423L383.727 45.2272L439.149 63.7013L509 40.5076L578.851 63.7013L634.273 45.2272L635.621 49.5423L578.716 68.4209L509 45.0924L439.284 68.4209L382.379 49.5423Z" fill="#B69D6D"/>
<path d="M402.066 29.8547L403.415 25.5396L439.149 37.541L509 14.3473L578.851 37.541L614.585 25.5396L615.934 29.8547L578.716 42.2606L509 18.9321L439.284 42.2606L402.066 29.8547Z" fill="#B69D6D"/>
<path d="M421.619 10.3019L422.968 5.98676L439.149 11.3806L509 -11.813L578.851 11.3806L595.032 5.98676L596.381 10.3019L578.716 16.1003L509 -7.22824L439.284 16.1003L421.619 10.3019Z" fill="#B69D6D"/>
<path d="M445.352 -12.0827L443.869 -16.263L509 -37.9733L574.131 -16.263L572.648 -12.0827L509 -33.3885L445.352 -12.0827Z" fill="#B69D6D"/>
</g>
</g>
<defs>
<clipPath id="clip0">
<rect x="509" y="-81.394" width="562" height="562" transform="rotate(45 509 -81.394)" fill="white"/>
</clipPath>
</defs>
</svg>
